X:1
T:Fleur de Mandragore
C:Michel Bordeleau
S:Roaring Jelly collection
R:Reel
L:1/8
M:C|
K:A
|"A"EGAE GABA|Aced cAAA|"F#m/C#"EGAE GABB-| BABd cAAA|
"D"EGAE GABA|Aced cAAA|"E"EGAE GABB-|1BABd cAA2:|[2 BABc Aceg ||
| "A"a4 a2 ga| "Bm"bAaA (3gag ec |"D"dfed cABc|"E"defg agfe|
"A"a4 a2 ga| "Bm"bAaA (3gag ec |"D"dfed "A"cABc|[1  "E"dcBc "A"Aceg:|[2 "E"dcBc "A"BA A2 ||
%["final"  "E"dcBc "A"Aceg|"A"a4 a2||
